X:1
T:Nocturne
%%score { 1 | 2 } 3
L:1/8
Q:1/4=90
M:3/4
K:F
V:1 treble nm="Piano" snm="Pno."
V:2 bass 
V:3 treble nm="Violin" snm="Vln."
V:1
 Ac || d4 de | A4 Ac | d4 de | c3/2d/4c/4 A2 Ac | A2 F3 G | E2 C3 A, | (D6 | D4) DC | A,6 | z6 | %11
 z6 || d4 de | A4 Ac | d2 d3 e | A4 Ac | A2 [B,DF]3 G | E2 [F,A,C]3 A, | D6- | D2 z2 Ac | d4 de | %21
 A4 Ac | d2 d3 e | c2 A2 Ac | A2 [B,DF]3 G | E2 [F,A,C]3 A, | D6- | D4 DC | A,6- | A,2 z2 Ad || %30
 e4 Ae | f4 Af | ed B2 c2 | A4 Ad | e4 Ag | f(3g/f/e/ f2 Af | ed B2 c2 | A6- | A4 AA/4B/4A/4G/4 | %39
 A6- | A2 z4 | z4 z A || d4 de | A4 Ac | d2 d3 e | A4 Ac | A2 [B,DF]3 G | E2 [F,A,C]3 A, | D6- | %49
 D2 z2 Ac | d4 de | A4 Ac | d2 d3 e | cd/c/ A2 Ac | A2 F3 G | E2 C3 A, | z2 A4- | A6- | A3 c BG | %59
 A4 Ad || e4 Ae | f4 Af | ed B2 c2 | A4 Ad | e4 Ag | f4 Af | ed B2 c2 | A6- | A4 AA/4B/4A/4G/4 | %69
 A6- | A6 | z4 Ac || d4 de | A4 Ac | d4 de | c2 A2 Ac | A2 F3 G | E2 C3 A, | D6 | GA Bd g2 | d'6 |] %81
V:2
 z2 || [A,DF]6 | [A,CE]6 | [A,DF]6 | [A,CE]6 | [G,B,D]6 | [D,F,A,]6 | (([A,B,D]6 | [G,B,D]6)) | %9
 D,,A,, F,4 | D,,A,, F,3 A,, | D,,A,, F,4 || D,A, F4 | A,,C, C4 | D,A, F4 | A,,E, C4 | G,,D, A,4 | %17
 D,,A,, E,4 | G,,D, A,2 B,2 | G,,D, B,4 | D,A, F4 | A,,C, C4 | D,A, F4 | A,,C, C4 | G,,D, A,4 | %25
 C,,A,, E,4 | G,,D, A,2 B,2 | G,,D, B,4 | D,,A,, F,4 | D,,A,, F,4 || D,A, F4 | A,,E, C4 | D,A, F4 | %33
 G,,D, B,4 | D,,A,, F,4 | D,,A,, F,4 | G,,D, B,4 | A,,E, C4 | A,,E, C4 | D,,A,, F,4 | %40
 D,,A,, F,3 A,, | D,,A,, F,4 || D,A, F4 | A,,E, C4 | D,A, F4 | A,,E, C4 | G,,D, A,4 | D,,A,, F,4 | %48
 G,,D, A,4 | G,,D, A,4 | D,,A,, F,4 | A,,E, C4 | D,,A,, F,4 | A,,E, C4 | G,,B,, A,4 | D,,A,, F,4 | %56
 G,,D, A,2 B,2 | G,,D, B,4 | D,,A,, F,4 | D,,A,, F,4 || A,,E, C4 | D,,A,, F,4 | G,,D, B,4 | %63
 D,,A,, F,4 | A,,E, C4 | D,,A,, F,4 | G,,D, B,4 | A,,E, C4 | A,,E, C4 | D,,A,, F,4 | D,,A,, F,4 | %71
 D,,A,, F,4 || [A,DF]6 | [A,CE]6 | [A,DF]6 | [A,CE]6 | [G,B,D]6 | [D,F,A,]6 | G,,D, G,A, B,D | D6 | %80
 D,,6 |] %81
V:3
 (Ac) || d4 (de) | A4 (Ac) | d4 (de) | (c3/2d/4)c/4 A2 (Ac) | A2 F3 G | E2 C3 A, | (D6 | D4) DC | %9
 z6 | z6 | z6 || d4 de | A4 Ac | d2 d3 e | A4 Ac | A2 F3 G | E2 C3 A, | D6- | D2 z2 Ac | d4 de | %21
 A4 Ac | d2 d3 e | c2 A2 Ac | A2 F3 G | E2 C3 A, | D6- | D4 DC | D6- | D2 z4 || z6 | z6 | z6 | %33
 z4 A,2 | C3 A, C2 | D4 D2 | B,4 C2 | A,6- | A,4 A,A,/4B,/4A,/4G,/4 | A,6- | A,2 z4 | z4 z A || %42
 d6- | de A4 | Ac d3 e | A4 Ac | A2 F3 G | E2 C3 A, | D6- | D2 z2 Ac | d4 de | A4 Ac | d2 d3 e | %53
 cd/c/ A2 Ac | A2 F3 G | E2 C3 A, | D6 | D4 DC | D6- | D4 Ad || e4 Ae | f4 Af | ed B2 c2 | A4 Ad | %64
 e4 Ag | f4 Af | ed B2 c2 | A6- | A4 AA/4B/4A/4G/4 | A6- | A6 | z4 Ac || d4 de | A4 Ac | d4 de | %75
 c2 A2 Ac | A2 F3 G | E2 C3 A, | D6- | D6 | z6 |] %81

